!!!COM: Palestrina, Giovanni Perluigi da
!!!OPR: Missa In minoribus duplicibus
!!!OMD: Credo
!!!OTL: Et in Spiritum
**kern	**kern	**kern	**kern
*Ibass	*Itenor	*Icalto	*Icant
!Bassus	!Tenor	!Altus	!Cantus
*clefF4	*clefGv2	*clefG2	*clefG2
*k[]	*k[]	*k[]	*k[]
*?:X	*?:X	*?:X	*?:X
*M4/2	*M4/2	*M4/2	*M4/2
=163	=163	=163	=163
1.D	1.d	1.f	1.a
2D	2A	2f	2d
=164	=164	=164	=164
2C#	2A	2e	2e
2D	2A	2d	2f#
2GG	2B	2d	2g
[2C	[2c	[2e	[2g
=165	=165	=165	=165
2C]	2c]	2e]	2g]
2AA	2c	2f	2a
2C	2c	2e	2g
2D	2A	2d	2f
=166	=166	=166	=166
1AA	1A	1c#	1e
[1D	[1A	2.d	2r
.	.	.	[2d
.	.	4e	.
=167	=167	=167	=167
2D]	2A]	2f	2d]
2C#	2A	2e	2e
2D	2A	[1d	2f
2GG	[2B-	.	2g
=168	=168	=168	=168
1AA	4B-]	2d]	2f
.	4A	.	.
.	1A	2c	2e
1BB-	.	2f	[1d
.	2G	4e	.
.	.	4d	.
=169	=169	=169	=169
1AA	1A	2f	2d]
.	.	2e	2c#
1D	1F	2r	2r
.	.	2A	2d
=170	=170	=170	=170
2C	2G	2c	2e
1F	1A	1c	1f
2C	2G	2c	2e
=171	=171	=171	=171
2D	2F	2A	2f
2D	2F	2B	2d
2C	2G	2c	2e
2FF	2A	[2c	2f
=172	=172	=172	=172
1GG	1G	2c]	2e
.	.	2B-	1d
1AA	1E	1A	.
.	.	.	2c#
=173	=173	=173	=173
0D	1D	1A	1d
.	2r	1f	1a
.	[2d	.	.
=174	=174	=174	=174
0r	2d]	1d	2f
.	2B	.	1g
.	1c	1e	.
.	.	.	[2a
=175	=175	=175	=175
0r	2d	2f	2a]
.	2G	2g	2b
.	2F	2a	2cc
.	2G	2g	2b
=176	=176	=176	=176
2r	2d	2f	2a
1A	1c	1e	1a
2E	2B	2e	2g
=177	=177	=177	=177
2A	2c	2e	2a
2G	2d	2g	2b
4C	1e	[1g	1cc
4D	.	.	.
4E	.	.	.
4F	.	.	.
=178	=178	=178	=178
1G	1.d	1g]	1b
1A	.	1e	1a
.	2c#	.	.
=179	=179	=179	=179
1D	2r	1f	2r
.	2A	.	2dd
2F	2A	2f	2cc
2G	2B	2d	2b
=180	=180	=180	=180
2F	2c	2f	2a
2C	2c	2e	2g
1D	1A	[1d	1f#
=181	=181	=181	=181
1GG	1B-	1d]	1g
1AA	[1A	1c	1e
=182	=182	=182	=182
2D	0A]	2f	2d
2C#	.	2e	2e
2D	.	2d	2f
2AA	.	2c	2e
=183	=183	=183	=183
1GG	2D	1B-	1g
.	2E	.	.
2D	2F	1A	1a
2C	2E	.	.
=184	=184	=184	=184
1BB-	1G	2r	2.d
.	.	1d	.
.	.	.	4e
1AA	1A	.	2f
.	.	2c	[2e
=185	=185	=185	=185
2GG	1D	2B-	2e]
2BB-	.	2G	1d
1AA	1E	2.A	.
.	.	.	2c#
.	.	4G	.
=186	=186	=186	=186
2r	1D	2.F	0d
2A	.	.	.
.	.	4E	.
2A	2r	2D	.
2G	2d	2B-	.
=187	=187	=187	=187
1F	2d	1A	0r
.	2c	.	.
4G	1B	1r	.
4F	.	.	.
4E	.	.	.
4D	.	.	.
=188	=188	=188	=188
2E	2c	0r	0r
2F	2A	.	.
2G	2B	.	.
2E	2c#	.	.
=189	=189	=189	=189
1D	1d	2r	2r
.	.	2f	2dd
1r	1r	2.e	2.cc
.	.	4d	4b
=190	=190	=190	=190
1r	1r	2c	2a
.	.	2B	2g#
2r	2r	1A	2a
2D	2d	.	2f
=191	=191	=191	=191
2.E	2.c	0r	1g
4D	4B	.	.
2C	2A	.	2a
2BB	2G#	.	2b
=192	=192	=192	=192
4AA	1A	0r	1cc
4BB	.	.	.
4C	.	.	.
4D	.	.	.
2E	1G	.	1r
2C	.	.	.
=193	=193	=193	=193
4D	1F	0r	1r
4E	.	.	.
1F	.	.	.
.	2.G	.	2r
2E	.	.	2g
.	4G	.	.
=194	=194	=194	=194
1F	0F	1c	2.a
.	.	.	4a
1D	.	2.d	2a
.	.	.	2d
.	.	4d	.
=195	=195	=195	=195
0r	0r	2d	2f
.	.	2G	2g
.	.	2A	[1f
.	.	2B-	.
=196	=196	=196	=196
0r	0r	4A	2f]
.	.	4F	.
.	.	2.c	2e
.	.	.	1d
.	.	8B	.
.	.	8A	.
.	.	2B	.
=197	=197	=197	=197
1AA	1r	2c	1c
.	.	1A	.
1BB-	1D	.	2r
.	.	2G	[2d
=198	=198	=198	=198
1AA	1E	1A	2d]
.	.	.	2c
2GG	1G	2B	1d
2BB	.	[2d	.
=199	=199	=199	=199
1AA	1C	2d]	1e
.	.	2.c	.
1GG	1D	.	1g
.	.	8B	.
.	.	8A	.
.	.	2B	.
=200	=200	=200	=200
2.AA	2A	1.c	2f
.	1A	.	2e
4GG	.	.	.
2FF	.	.	2f
2GG	2G	2B	[2e
=201	=201	=201	=201
0AA	2F	1A	4e]
.	.	.	4d
.	4E	.	1d
.	4D	.	.
.	1E	1A	.
.	.	.	2c#
=202	=202	=202	=202
0D	0F#	1A	1d
.	.	2.d	2r
.	.	.	[2a
.	.	4e	.
=203	=203	=203	=203
1r	0r	2f#	2a]
.	.	2g	2b
1AA	.	1e	1cc#
=204	=204	=204	=204
2.D	2r	0d	0dd
.	1A	.	.
4E	.	.	.
2F#	.	.	.
2G	2B	.	.
=205	=205	=205	=205
1E	1c#	2r	1r
.	.	1g	.
1D	1d	.	2r
.	.	2f	2dd
=206	=206	=206	=206
2C	2r	1.g	2ee
2BB	2d	.	2dd
2C	2e	.	2cc
2GG	2d	2g	2b
=207	=207	=207	=207
2AA	2c	1e	2a
2E	2B	.	2g
2r	1A	1e	2a
[2A	.	.	[2cc
=208	=208	=208	=208
2A]	1c	2.f	4cc]
.	.	.	4b
2F	.	.	2a
.	.	4e	.
2G	2B	2d	2g
2A	[2A	2c	2f
=209	=209	=209	=209
1E	2A]	1B	0e
.	2G#	.	.
1AA	1A	1c	.
=210	=210	=210	=210
0r	1F	2r	1a
.	.	1f	.
.	1c	.	1g
.	.	[2e	.
=211	=211	=211	=211
0r	1d	2e]	1f
.	.	1d	.
.	[1A	.	[1e
.	.	4c#	.
.	.	4B	.
=212	=212	=212	=212
0r	2A]	2c#	2e]
.	2D	2d	2f
.	[1G	[1B	2e
.	.	.	2d
=213	=213	=213	=213
0r	2G]	2B]	4e
.	.	.	4d
.	2F	2A	1d
.	2E	2G	.
.	2E	2G	2c#
=214	=214	=214	=214
1r	1D	1A	2d
.	.	.	2a
1FF	1A	2r	[1cc
.	.	[2f	.
=215	=215	=215	=215
1C	1G	2f]	1cc]
.	.	1e	.
1D	1F	.	[1a
.	.	[2d	.
=216	=216	=216	=216
1.AA	1.E	2d]	1a]
.	.	4c	.
.	.	4B	.
.	.	[1c	1a
2FF	2F	.	.
=217	=217	=217	=217
2C	2E	2c]	2g
2D	2D	2A	2f#
2C	2E	2c	1g
2GG	[2D	[2B-	.
=218	=218	=218	=218
1AA	2D]	4B-]	2f
.	.	4A	.
.	2C#	2.A	2.e
1BB-	1D	.	.
.	.	8G	4d
.	.	8F	.
.	.	2G	[2d
=219	=219	=219	=219
1AA	1E	2A	2d]
.	.	2A	2c#
1D	2r	[1A	1d
.	[2F	.	.
=220	=220	=220	=220
2r	4F]	1A]	2.f
.	4G	.	.
2.F	2A	.	.
.	.	.	4g
.	2D	2.F	1a
4G	.	.	.
2A	[2F	.	.
.	.	4G	.
=221	=221	=221	=221
2D	4F]	2A	2.f
.	4G	.	.
2.F	2.A	2D	.
.	.	.	4g
.	.	2.F	1a
4G	4G	.	.
[2A	4F	.	.
.	4E	4G	.
=222	=222	=222	=222
4A]	2.D	0A	2.f
4G	.	.	.
4F	.	.	.
4E	4E	.	4g
2.D	[1F	.	4a
.	.	.	4g
.	.	.	4f
4C	.	.	4e
=223	=223	=223	=223
4BB-	2F]	1.B-	0d
4AA	.	.	.
1GG	1G	.	.
2FF#	2A	2A	.
=224	=224	=224	=224
0GG	2.B-	2.G	[0d
.	4A	4A	.
.	1G	1B-	.
=225	=225	=225	=225
0D	0F#	0A	0d]
==	==	==	==
*-	*-	*-	*-
!!!CDT: 1525/^1526/-1594/2/2
!!!OCY: Italia
!!!AGN: Mass (Paraphrase)
!!!AST: renaissance, vocal
!!!ASW: Gregorian Mass
!!!PWK: Masses, Book 7
!!!RNB: Cadence finals: C,G,A,D
!!!YOR: Le Opere Complete, v. 23, p. 182
!!!YOO: Rome, Italy: Fratelli Scalera
!!!END: 1992//
!!!EED: John Miller
!!!YEC: Copyright 2000, John Miller
!!!YEN: United States of America
!!!YEM: Rights to all derivative electronic formats reserved.
!!!YEM: Refer to licensing agreement for further details.
!!!YEM: This file must be accompanied by the licensing agreement.
!!!YEM: A copy of the licensing agreement may be found at http://www.music-cog.ohio-state.edu/HumdrumDatabases/Palestrina/license.txt
!!!EMD: converted to Humdrum by Bret Aarden
